icons/2_Variations/ImmoScout24 fg.var.svg

<svg width="1024" height="1024" viewBox="0 0 1024 1024" fill="none" xmlns="http://www.w3.org/2000/svg">
<g clip-path="url(#clip0_3_125)">
<path d="M512 1024C794.77 1024 1024 794.77 1024 512C1024 229.23 794.77 0 512 0C229.23 0 0 229.23 0 512C0 794.77 229.23 1024 512 1024Z" fill="#96DFD3"/>
<path d="M690.79 438.09C690.28 458.91 676.06 470.09 662.35 470.09C648.13 470.09 633.91 458.92 633.91 438.09C633.91 419.3 646.1 406.09 662.35 406.09C678.6 406.09 690.79 419.8 690.79 438.09ZM767 371.55C766.49 371.55 766.49 372.06 766 372.06C765.922 372.938 766.099 373.82 766.51 374.6L767.51 376.6C768.02 377.11 767.51 379.14 767 380.16C766.49 381.18 763.44 382.16 764 382.7C764.51 383.7 765.52 384.7 766 385.7C766 386.21 766.51 386.7 766 387.22C766 387.73 765.49 387.73 765 388.22C764 388.73 764 388.73 764.49 389.74C764.49 390.25 765 390.74 765 391.26C765.51 392.26 762 393.26 761.44 394.82V398.38C761.44 398.89 761.44 398.89 760.93 399.38C760.873 399.759 760.694 400.11 760.42 400.38V402.38C760.363 402.759 760.184 403.11 759.91 403.38H759.4C758.89 403.38 758.4 404.38 757.88 404.9V405.41C757.88 405.92 758.39 405.92 757.88 405.92C757.37 406.43 757.37 406.92 756.88 407.44C756.483 408.027 756.302 408.734 756.37 409.44V409.95C756.37 410.46 756.37 410.46 755.86 410.95C755.35 410.95 754.86 411.46 754.34 411.46C753.83 411.97 753.83 411.97 753.83 412.46V413.46C753.887 413.839 754.066 414.19 754.34 414.46C754.593 414.835 754.728 415.277 754.728 415.73C754.728 416.182 754.593 416.624 754.34 417C754.23 417.093 754.142 417.21 754.082 417.341C754.021 417.472 753.99 417.615 753.99 417.76C753.99 417.904 754.021 418.047 754.082 418.178C754.142 418.309 754.23 418.426 754.34 418.52C754.34 419.03 754.85 419.03 754.85 419.52C755.36 421.04 754.85 421.52 753.85 421.52C752.33 421.52 752.33 421.52 751.85 423.04C751.37 424.56 750.85 425.04 749.85 425.04C748.85 425.04 748.33 425.55 747.85 426.56C747.672 427.062 747.625 427.601 747.714 428.126C747.804 428.651 748.026 429.145 748.36 429.56C749.36 430.07 748.87 431.56 749.36 432.56L748.85 433.07L748.34 432.56H747.83V433.56C748.066 433.839 748.196 434.193 748.196 434.56C748.196 434.926 748.066 435.28 747.83 435.56C747.32 436.56 746.31 438.1 747.83 439.62V441.14C747.83 441.65 747.32 441.65 746.83 441.65H745.83C745.32 441.65 745.32 441.65 744.83 442.16V443.16C744.83 443.67 745.34 444.16 745.83 444.68C746.066 444.959 746.196 445.313 746.196 445.68C746.196 446.046 746.066 446.4 745.83 446.68C744.31 447.19 744.83 447.68 745.32 448.68C745.287 448.955 745.316 449.234 745.404 449.497C745.492 449.76 745.638 450 745.83 450.2C745.773 450.579 745.594 450.93 745.32 451.2C744.32 451.2 743.32 452.2 742.32 451.71H741.81V452.71L743.33 454.23C743.572 454.693 743.698 455.207 743.698 455.73C743.698 456.252 743.572 456.767 743.33 457.23C742.82 457.23 742.82 457.74 742.33 457.23C741.82 457.23 741.33 456.72 741.33 458.23C741.33 459.23 741.33 460.23 740.33 460.23C739.33 460.23 739.33 461.23 739.33 461.75C739.34 462.273 739.203 462.789 738.935 463.238C738.666 463.687 738.276 464.051 737.81 464.29C737.3 464.8 736.81 464.8 737.81 465.29C738.81 465.78 739.33 466.81 738.81 468.29C738.81 469.29 738.3 471.29 739.81 471.85C740.32 471.85 740.32 472.85 739.81 473.37C739.541 473.644 739.19 473.823 738.81 473.88C738.3 473.88 737.81 473.37 737.29 472.88C737.223 472.881 737.156 472.869 737.093 472.844C737.031 472.818 736.974 472.781 736.926 472.733C736.879 472.686 736.841 472.629 736.816 472.566C736.791 472.504 736.779 472.437 736.78 472.37C736.78 472.37 736.27 472.88 736.78 472.88C736.78 473.39 737.29 473.88 737.29 474.4V475.92C737.021 476.194 736.67 476.373 736.29 476.43C735.78 476.43 735.29 476.43 735.29 477.43C735.368 478.308 735.191 479.19 734.78 479.97C734.686 480.527 734.454 481.051 734.104 481.495C733.755 481.939 733.299 482.288 732.78 482.51C731.78 483.02 731.26 483.51 731.78 484.51V485.02C731.89 485.113 731.978 485.23 732.038 485.361C732.099 485.492 732.13 485.635 732.13 485.78C732.13 485.924 732.099 486.067 732.038 486.198C731.978 486.329 731.89 486.446 731.78 486.54C731.715 486.606 731.637 486.659 731.551 486.695C731.465 486.731 731.373 486.75 731.28 486.75C731.187 486.75 731.095 486.731 731.009 486.695C730.923 486.659 730.845 486.606 730.78 486.54H729.78C729.383 487.127 729.202 487.834 729.27 488.54C729.27 489.05 729.78 489.54 730.27 490.06C731.057 490.804 731.731 491.66 732.27 492.6C732.78 493.6 732.27 493.6 731.76 493.6H730.76C730.25 493.6 729.24 493.6 729.24 494.11L728.73 494.62C727.21 495.62 727.21 495.62 727.21 498.18C727.21 499.7 726.7 501.18 725.21 501.74C724.21 502.25 723.69 504.28 722.67 504.28C722.16 504.28 721.67 505.28 721.15 505.28L720.64 505.79C720.13 505.79 720.13 505.28 720.13 505.79C719.62 506.3 720.13 507.31 720.13 507.79C720.13 508.27 720.64 508.79 720.64 509.79C721.15 510.79 721.15 511.31 720.13 511.31C719.872 511.33 719.629 511.442 719.446 511.625C719.262 511.809 719.151 512.051 719.13 512.31V512.82C719.372 513.283 719.498 513.797 719.498 514.32C719.498 514.842 719.372 515.357 719.13 515.82V516.33C719.13 516.84 719.64 517.85 719.13 518.33H717.2C716.138 518.437 715.114 518.779 714.2 519.33C714.2 519.84 713.69 519.84 714.2 520.33C714.71 520.82 714.71 521.33 715.2 521.85C715.638 522.225 715.998 522.683 716.259 523.198C716.519 523.713 716.676 524.274 716.72 524.85C716.852 525.73 716.671 526.628 716.21 527.39C718.21 524.39 718.21 525.39 718.21 526.39C718.21 528.39 717.7 530.96 716.21 532.49L713.21 531.49C713.21 531.49 691.37 523.87 657.85 513.71C657.85 513.71 628.39 505.08 616.2 501.01C616.2 501.01 613.66 500.01 608.58 500.5C603.5 500.99 586.23 502.5 574.58 503.5L556.8 505.5C524.8 509.06 510.58 509.56 510.58 509.56C460.19 515.8 448 516.3 448 516.3C421.08 518.3 404.32 521.38 364.19 523.92L288.52 532L282.93 532.51H280.93C280.004 531.904 279.302 531.012 278.93 529.97V527.43C281.93 526.43 278.42 522.86 278.42 522.86C278.222 522.795 278.039 522.692 277.881 522.556C277.724 522.421 277.595 522.255 277.502 522.069C277.409 521.883 277.353 521.68 277.339 521.472C277.325 521.265 277.353 521.056 277.42 520.86V520.35C277.42 519.84 277.93 519.84 277.93 519.35C277.42 518.35 279.45 515.29 279.45 515.29C278.94 514.78 279.45 514.78 278.45 513.77C277.757 512.531 277.411 511.128 277.45 509.71C277.45 508.71 278.97 506.71 278.45 506.15L275.91 503.61C275.718 503.41 275.572 503.17 275.484 502.907C275.396 502.644 275.367 502.365 275.4 502.09V501.09C275.91 500.09 275.91 500.09 275.4 499.09C274.89 498.58 274.89 498.09 274.4 498.09C273.89 497.09 275.92 495.09 275.4 493.52C275.4 493.01 274.89 492 274.89 491.52C274.89 491.04 274.38 490.52 274.38 490V487C274.38 486.49 273.87 485.48 273.87 485V483.48C274.38 483.48 273.87 482.48 274.38 481.96V481.45C273.87 480.94 273.87 480.94 273.87 480.45V478.45C273.948 477.571 273.771 476.689 273.36 475.91C273.36 475.4 273.36 475.4 272.85 474.91V473.91C272.85 473.4 273.36 473.4 273.36 472.91V471.1C273.36 470.59 272.85 470.59 272.85 470.1C272.829 469.841 272.717 469.599 272.534 469.415C272.351 469.232 272.108 469.12 271.85 469.1C271.299 468.186 270.958 467.161 270.85 466.1C270.883 465.824 270.854 465.545 270.766 465.282C270.678 465.019 270.532 464.779 270.34 464.58C269.83 464.07 269.83 464.07 269.83 463.58C268.83 462.06 268.83 461.58 269.83 461.58C270.83 461.58 270.83 461.07 270.34 459.58C270.133 459.082 270.071 458.537 270.161 458.006C270.251 457.475 270.49 456.98 270.85 456.58C271.36 456.58 271.85 456.07 271.36 454.58C271.36 453.06 271.87 451.02 270.85 450.52C269.83 450.02 269.85 448.52 269.33 447.52V447.01L269.84 447.52H270.35C270.35 447.01 270.35 447.01 269.84 446.52C269.501 446.202 269.27 445.787 269.178 445.331C269.087 444.876 269.14 444.403 269.33 443.98C269.33 442.46 269.33 440.98 267.81 439.92C267.618 439.72 267.472 439.48 267.384 439.217C267.296 438.954 267.267 438.675 267.3 438.4C267.3 437.89 267.3 437.89 267.81 437.89H268.32L268.83 437.38C268.773 437 268.594 436.649 268.32 436.38C267.81 435.87 267.81 435.38 267.32 435.38C266.81 434.87 266.32 433.86 266.81 433.38C267.32 432.38 266.81 431.86 266.3 431.38C266.108 431.18 265.962 430.94 265.874 430.677C265.786 430.414 265.757 430.135 265.79 429.86V428.86C266.3 427.86 266.79 427.34 267.79 427.86C268.3 427.86 268.3 427.35 268.3 426.86C268.3 426.37 266.78 426.86 266.78 426.86C266.27 426.35 266.78 426.35 266.27 425.86C265.719 424.946 265.377 423.921 265.27 422.86C265.269 422.792 265.281 422.725 265.306 422.663C265.331 422.6 265.369 422.544 265.416 422.496C265.464 422.448 265.521 422.411 265.583 422.386C265.646 422.36 265.713 422.348 265.78 422.35C266.29 422.35 266.78 422.35 265.78 421.35C265.27 420.35 265.78 420.84 265.78 419.83C265.78 419.32 266.29 419.32 265.78 418.83L266.29 418.32C266.29 418.32 272.89 417.32 273.4 417.32C275.4 417.32 273.91 414.78 273.91 414.78C273.402 413.124 273.402 411.355 273.91 409.7C273.91 407.16 272.91 406.7 271.91 406.14C271.4 405.63 271.4 405.14 271.4 404.14L271.91 403.63H272.91C272.909 403.562 272.921 403.495 272.946 403.433C272.971 403.37 273.009 403.314 273.056 403.266C273.104 403.218 273.161 403.181 273.223 403.156C273.286 403.13 273.353 403.118 273.42 403.12V402C272.91 401.49 272.91 402 272.42 401.49C272.42 400.98 271.91 400.49 271.91 399.97L272.42 399.46C272.561 399.145 272.633 398.804 272.633 398.46C272.633 398.115 272.561 397.774 272.42 397.46C272.42 396.95 271.91 396.46 271.91 395.94C271.703 395.442 271.641 394.897 271.731 394.366C271.821 393.835 272.06 393.34 272.42 392.94C272.673 392.564 272.808 392.122 272.808 391.67C272.808 391.217 272.673 390.775 272.42 390.4V389.89C272.228 389.69 272.082 389.45 271.994 389.187C271.906 388.924 271.877 388.645 271.91 388.37C271.91 387.37 272.42 386.85 272.91 386.85C272.977 386.851 273.044 386.839 273.107 386.814C273.169 386.788 273.226 386.751 273.274 386.703C273.321 386.656 273.359 386.599 273.384 386.536C273.409 386.474 273.421 386.407 273.42 386.34V384.82C273.22 384.627 272.98 384.482 272.717 384.393C272.454 384.305 272.175 384.277 271.9 384.31C270.9 384.31 270.9 383.8 270.38 382.79C269.86 381.78 269.38 381.79 269.87 381.27C270.38 381.27 270.38 380.76 270.87 380.76C271.36 380.76 271.38 380.25 271.38 379.76V379.25C271.89 377.73 271.89 377.73 271.38 375.19C270.869 373.709 270.869 372.1 271.38 370.62C271.89 369.62 271.38 367.06 271.89 367.06C272.4 367.06 272.4 366.06 272.4 365.54C272.4 365.02 272.4 365.03 272.91 365.03C272.977 365.031 273.044 365.019 273.107 364.994C273.169 364.968 273.226 364.931 273.274 364.883C273.321 364.836 273.359 364.779 273.384 364.716C273.409 364.654 273.421 364.587 273.42 364.52C273.42 364.01 272.91 363.52 272.42 363C271.93 362.48 271.91 362 271.42 361C270.93 360 270.42 359.48 271.42 359C271.93 359 271.93 358 271.42 357.48C270.788 356.398 270.444 355.172 270.42 353.92V353.41C270.42 352.41 269.42 351.89 269.91 351.41C269.91 350.9 270.42 351.41 270.91 350.9C271.4 350.39 272.43 349.9 271.91 349.38V348.38C271.4 347.87 271.4 347.38 270.91 346.86C269.91 346.35 270.4 346.35 269.91 345.34V344.83C269.909 344.762 269.921 344.695 269.946 344.633C269.971 344.57 270.009 344.514 270.056 344.466C270.104 344.418 270.161 344.381 270.223 344.356C270.286 344.33 270.353 344.318 270.42 344.32L278.55 343.32C278.55 343.32 299.88 340.78 320.71 339.26C320.71 339.26 336.46 337.74 401.98 331.13C401.98 331.13 429.41 328.59 461.41 324.53C461.41 324.53 488.84 321.53 545.72 316.4C545.72 316.4 584.32 312.34 612.26 308.78C612.26 308.78 622.42 307.26 629.53 310.78C629.53 310.78 675.24 330.08 690.99 336.18L767 369C769 370 767.51 371 767.51 371L767 371.55ZM334.74 356.82L317 363.93V483.8H334.78L334.74 356.82ZM460.74 396.44C455.145 391.872 448.152 389.362 440.93 389.33C427.72 389.33 417.06 395.43 412.99 405.58C408.42 393.39 397.75 389.33 389.12 389.33C378.96 389.33 370.84 393.9 366.77 401.01L364.23 391.36H350.48V483.29H366.73V427.42C366.73 413.71 374.35 405.07 386.03 405.07C396.19 405.07 401.78 411.16 401.78 422.34V483.8H418V427.42C418 413.71 425.62 405.07 437.3 405.07C447.46 405.07 453.05 411.16 453.05 422.34V483.8H469.3V418.28C469.84 409.13 466.8 402 460.7 396.44H460.74ZM604.48 418.28C604.48 409.14 601.48 402.03 595.34 396.44C589.745 391.872 582.752 389.362 575.53 389.33C562.32 389.33 551.66 395.43 547.59 405.58C543.02 393.39 532.35 389.33 523.72 389.33C514.07 389.33 505.44 393.9 501.37 401.01L499.37 391.36H486.1V483.29H501.85V427.42C501.85 413.71 509.47 405.07 521.15 405.07C531.31 405.07 536.9 411.16 536.9 422.34V483.8H553.15V427.42C553.15 413.71 560.77 405.07 572.45 405.07C582.61 405.07 588.2 411.16 588.2 422.34V483.8H604.45L604.48 418.28ZM707 437.58C707 409.64 688.21 389.33 661.8 389.33C648.59 389.33 636.91 394.41 628.8 403.55C621.18 412.18 616.61 424.37 616.61 437.55C616.61 450.73 620.67 462.95 628.8 471.55C636.93 480.69 648.61 485.77 661.8 485.77C688.25 485.83 707 465.51 707 437.58ZM720.21 653.44V670.71H634.92V655H635.43C640 651.44 644.57 647.89 648.64 644.84C678.64 621.48 700.45 605.22 700.45 583.89C700.45 567.13 688.77 560.02 677.09 560.02C665.41 560.02 653.22 568.15 653.22 584.4L636.97 590.5V586.4C636.97 556.94 658.81 543.73 678.62 543.73C701.48 543.73 717.22 559.48 717.22 581.32C717.22 609.76 692.33 628.56 667.95 647.32L660.33 653.41L720.21 653.44ZM290.51 637.19C290.51 648.36 285.94 658.01 277.81 664.62C270.19 670.72 260.54 673.76 249.87 673.76C229.05 673.76 212.28 661.06 207.21 641.76L225 634.65V635.16C228.56 650.91 240.75 656.49 251.41 656.49C262.07 656.49 272.74 650.9 272.74 638.21C272.74 626.02 263.09 620.94 247.85 614.85L245.85 614.34C231.12 608.75 212.85 601.13 212.85 577.26C212.85 552.88 231.64 541.71 249.42 541.71C263.13 541.71 279.42 548.82 285.48 564.06V564.57L269.73 570.67C266.17 562 256.52 558 248.9 558C239.76 558 230.11 564.1 230.11 575.78C230.11 587.97 239.76 592.54 252.97 598.13L254.49 598.64C271.25 605.7 290.55 613.32 290.55 637.19H290.51ZM477 625C477 652.94 458.21 673.25 431.8 673.25C405.39 673.25 386.6 652.93 386.6 625C386.6 597.07 405.9 576.75 431.8 576.75C457.7 576.75 477 597.06 477 625ZM431.8 593C415.04 593 402.8 606.21 402.8 625C402.8 646.33 417.53 657.51 431.8 657.51C446.07 657.51 460.24 646.34 460.24 625C460.19 606.21 448 592.49 431.75 593H431.8ZM546 631.6V578.78H562.25V670.2H549.08L546.08 657.5C540.49 666.64 530.33 672.23 518.65 672.23C503.92 672.23 487.16 663.09 487.16 637.23V578.78H503.41V637.19C503.41 652.43 513.06 657.51 521.69 657.51C533.37 657.51 545.56 648.37 545.56 631.61L546 631.6ZM604.41 552.87V579.28H623.71V594H604.41V645.3C604.41 653.43 607.97 658 614.57 658C617.293 657.856 619.926 656.978 622.19 655.46L623.19 654.95V670.7H622.68C618.772 672.102 614.641 672.78 610.49 672.7C601.86 672.7 587.63 668.64 587.63 643.7V593.51H572.44V578.78H587.68V559L603.93 552.9L604.41 552.87ZM816.72 623.47V640.23H795.42V670.71H778.66V640.24H720.76V627.54L768.5 546.27H786.78L741.58 623.47H778.66V592.47L795.42 585.87V623.46L816.72 623.47ZM382.48 647.85L381.97 648.36C373.84 663.6 359.62 672.23 343.37 672.23C322 672.23 299.69 657 299.69 624C299.69 609.27 304.26 596.57 312.9 587.94C320.786 580.299 331.381 576.098 342.36 576.26C358.61 576.26 372.36 584.89 378.93 598.61L379.44 599.12L364.2 605.22C362.125 601.372 359.045 598.16 355.289 595.923C351.533 593.687 347.241 592.511 342.87 592.52C324.58 592.52 316.46 609.28 316.46 624.52C316.46 646.87 330.17 657.03 343.89 657.03C348.702 656.978 353.412 655.63 357.523 653.128C361.634 650.625 364.994 647.061 367.25 642.81L382.48 647.85Z" fill="#56595B"/>
</g>
<defs>
<clipPath id="clip0_3_125">
<rect width="1024" height="1024" fill="white"/>
</clipPath>
</defs>
</svg>

<svg xmlns="http://www.w3.org/2000/svg" viewBox="0 0 1024 1024">
   <circle cx="512" cy="512" r="512" style="fill:#00ffd0"/>
   <path d="M690.79 438.09c-.51 20.82-14.73 32-28.44 32-14.22 0-28.44-11.17-28.44-32 0-18.79 12.19-32 28.44-32s28.44 13.71 28.44 32ZM767 371.55c-.51 0-.51.51-1 .51a4.58 4.58 0 0 0 .51 2.54l1 2c.51.51 0 2.54-.51 3.56s-3.56 2-3 2.54c.51 1 1.52 2 2 3 0 .51.51 1 0 1.52 0 .51-.51.51-1 1-1 .51-1 .51-.51 1.52 0 .51.51 1 .51 1.52.51 1-3 2-3.56 3.56v3.56c0 .51 0 .51-.51 1a1.77 1.77 0 0 1-.51 1v2a1.77 1.77 0 0 1-.51 1h-.51c-.51 0-1 1-1.52 1.52v.51c0 .51.51.51 0 .51-.51.51-.51 1-1 1.52a3.05 3.05 0 0 0-.51 2v.51c0 .51 0 .51-.51 1-.51 0-1 .51-1.52.51-.51.51-.51.51-.51 1v1a1.77 1.77 0 0 0 .51 1 2.27 2.27 0 0 1 0 2.54 1 1 0 0 0 0 1.52c0 .51.51.51.51 1 .51 1.52 0 2-1 2-1.52 0-1.52 0-2 1.52s-1 2-2 2-1.52.51-2 1.52a3.12 3.12 0 0 0 .51 3c1 .51.51 2 1 3l-.51.51-.51-.51h-.51v1a1.55 1.55 0 0 1 0 2c-.51 1-1.52 2.54 0 4.06v1.52c0 .51-.51.51-1 .51h-1c-.51 0-.51 0-1 .51v1c0 .51.51 1 1 1.52a1.55 1.55 0 0 1 0 2c-1.52.51-1 1-.51 2a1.87 1.87 0 0 0 .51 1.52 1.77 1.77 0 0 1-.51 1c-1 0-2 1-3 .51h-.51v1l1.52 1.52a3.24 3.24 0 0 1 0 3c-.51 0-.51.51-1 0-.51 0-1-.51-1 1 0 1 0 2-1 2s-1 1-1 1.52a2.79 2.79 0 0 1-1.52 2.54c-.51.51-1 .51 0 1s1.52 1.52 1 3c0 1-.51 3 1 3.56.51 0 .51 1 0 1.52a1.77 1.77 0 0 1-1 .51c-.51 0-1-.51-1.52-1a.5.5 0 0 1-.51-.51s-.51.51 0 .51c0 .51.51 1 .51 1.52v1.52a1.77 1.77 0 0 1-1 .51c-.51 0-1 0-1 1a4.58 4.58 0 0 1-.51 2.54 3.37 3.37 0 0 1-2 2.54c-1 .51-1.52 1-1 2v.51a1 1 0 0 1 0 1.52.7.7 0 0 1-1 0h-1a3.05 3.05 0 0 0-.51 2c0 .51.51 1 1 1.52a11.08 11.08 0 0 1 2 2.54c.51 1 0 1-.51 1h-1c-.51 0-1.52 0-1.52.51l-.51.51c-1.52 1-1.52 1-1.52 3.56 0 1.52-.51 3-2 3.56-1 .51-1.52 2.54-2.54 2.54-.51 0-1 1-1.52 1l-.51.51c-.51 0-.51-.51-.51 0-.51.51 0 1.52 0 2s.51 1 .51 2c.51 1 .51 1.52-.51 1.52a1.09 1.09 0 0 0-1 1v.51a3.24 3.24 0 0 1 0 3v.51c0 .51.51 1.52 0 2h-1.93a7.22 7.22 0 0 0-3 1c0 .51-.51.51 0 1s.51 1 1 1.52a4.39 4.39 0 0 1 1.52 3 3.81 3.81 0 0 1-.51 2.54c2-3 2-2 2-1 0 2-.51 4.57-2 6.1l-3-1s-21.84-7.62-55.36-17.78c0 0-29.46-8.63-41.65-12.7 0 0-2.54-1-7.62-.51s-22.35 2-34 3l-17.78 2c-32 3.56-46.22 4.06-46.22 4.06-50.39 6.24-62.58 6.74-62.58 6.74-26.92 2-43.68 5.08-83.81 7.62L288.52 532l-5.59.51h-2a5.07 5.07 0 0 1-2-2.54v-2.54c3-1-.51-4.57-.51-4.57a1.57 1.57 0 0 1-1-2v-.51c0-.51.51-.51.51-1-.51-1 1.52-4.06 1.52-4.06-.51-.51 0-.51-1-1.52a7.87 7.87 0 0 1-1-4.06c0-1 1.52-3 1-3.56l-2.54-2.54a1.87 1.87 0 0 1-.51-1.52v-1c.51-1 .51-1 0-2-.51-.51-.51-1-1-1-.51-1 1.52-3 1-4.57 0-.51-.51-1.52-.51-2s-.51-1-.51-1.52v-3c0-.51-.51-1.52-.51-2v-1.52c.51 0 0-1 .51-1.52v-.51c-.51-.51-.51-.51-.51-1v-2a4.58 4.58 0 0 0-.51-2.54c0-.51 0-.51-.51-1v-1c0-.51.51-.51.51-1v-1.81c0-.51-.51-.51-.51-1a1.09 1.09 0 0 0-1-1 7.22 7.22 0 0 1-1-3 1.87 1.87 0 0 0-.51-1.52c-.51-.51-.51-.51-.51-1-1-1.52-1-2 0-2s1-.51.51-2a2.85 2.85 0 0 1 .51-3c.51 0 1-.51.51-2 0-1.52.51-3.56-.51-4.06s-1-2-1.52-3v-.51l.51.51h.51c0-.51 0-.51-.51-1a2.23 2.23 0 0 1-.51-2.54c0-1.52 0-3-1.52-4.06a1.87 1.87 0 0 1-.51-1.52c0-.51 0-.51.51-.51h.51l.51-.51a1.77 1.77 0 0 0-.51-1c-.51-.51-.51-1-1-1-.51-.51-1-1.52-.51-2 .51-1 0-1.52-.51-2a1.87 1.87 0 0 1-.51-1.52v-1c.51-1 1-1.52 2-1 .51 0 .51-.51.51-1s-1.52 0-1.52 0c-.51-.51 0-.51-.51-1a7.22 7.22 0 0 1-1-3 .5.5 0 0 1 .51-.51c.51 0 1 0 0-1-.51-1 0-.51 0-1.52 0-.51.51-.51 0-1l.51-.51s6.6-1 7.11-1c2 0 .51-2.54.51-2.54a8.66 8.66 0 0 1 0-5.08c0-2.54-1-3-2-3.56-.51-.51-.51-1-.51-2l.51-.51h1a.5.5 0 0 1 .51-.51V402c-.51-.51-.51 0-1-.51 0-.51-.51-1-.51-1.52l.51-.51a2.45 2.45 0 0 0 0-2c0-.51-.51-1-.51-1.52a2.85 2.85 0 0 1 .51-3 2.27 2.27 0 0 0 0-2.54v-.51a1.87 1.87 0 0 1-.51-1.52c0-1 .51-1.52 1-1.52a.5.5 0 0 0 .51-.51v-1.52a1.87 1.87 0 0 0-1.52-.51c-1 0-1-.51-1.52-1.52s-1-1-.51-1.52c.51 0 .51-.51 1-.51s.51-.51.51-1v-.51c.51-1.52.51-1.52 0-4.06a7 7 0 0 1 0-4.57c.51-1 0-3.56.51-3.56s.51-1 .51-1.52 0-.51.51-.51a.5.5 0 0 0 .51-.51c0-.51-.51-1-1-1.52s-.51-1-1-2-1-1.52 0-2c.51 0 .51-1 0-1.52a7.34 7.34 0 0 1-1-3.56v-.51c0-1-1-1.52-.51-2 0-.51.51 0 1-.51s1.52-1 1-1.52v-1c-.51-.51-.51-1-1-1.52-1-.51-.51-.51-1-1.52v-.51a.5.5 0 0 1 .51-.51l8.13-1s21.33-2.54 42.16-4.06c0 0 15.75-1.52 81.27-8.13 0 0 27.43-2.54 59.43-6.6 0 0 27.43-3 84.31-8.13 0 0 38.6-4.06 66.54-7.62 0 0 10.16-1.52 17.27 2 0 0 45.71 19.3 61.46 25.4L767 369c2 1 .51 2 .51 2Zm-432.26-14.73L317 363.93V483.8h17.78Zm126 39.62a31.55 31.55 0 0 0-19.81-7.11c-13.21 0-23.87 6.1-27.94 16.25-4.57-12.19-15.24-16.25-23.87-16.25-10.16 0-18.28 4.57-22.35 11.68l-2.54-9.65h-13.75v91.93h16.25v-55.87c0-13.71 7.62-22.35 19.3-22.35 10.16 0 15.75 6.09 15.75 17.27v61.46H418v-56.38c0-13.71 7.62-22.35 19.3-22.35 10.16 0 15.75 6.09 15.75 17.27v61.46h16.25v-65.52c.54-9.15-2.5-16.28-8.6-21.84Zm143.74 21.84c0-9.14-3-16.25-9.14-21.84a31.55 31.55 0 0 0-19.81-7.11c-13.21 0-23.87 6.1-27.94 16.25-4.57-12.19-15.24-16.25-23.87-16.25-9.65 0-18.28 4.57-22.35 11.68l-2-9.65H486.1v91.93h15.75v-55.87c0-13.71 7.62-22.35 19.3-22.35 10.16 0 15.75 6.09 15.75 17.27v61.46h16.25v-56.38c0-13.71 7.62-22.35 19.3-22.35 10.16 0 15.75 6.09 15.75 17.27v61.46h16.25ZM707 437.58c0-27.94-18.79-48.25-45.2-48.25-13.21 0-24.89 5.08-33 14.22-7.62 8.63-12.19 20.82-12.19 34s4.06 25.4 12.19 34c8.13 9.14 19.81 14.22 33 14.22 26.45.06 45.2-20.26 45.2-48.19Zm13.21 215.86v17.27h-85.29V655h.51c4.57-3.56 9.14-7.11 13.21-10.16 30-23.36 51.81-39.62 51.81-60.95 0-16.76-11.68-23.87-23.36-23.87s-23.87 8.13-23.87 24.38l-16.25 6.1v-4.1c0-29.46 21.84-42.67 41.65-42.67 22.86 0 38.6 15.75 38.6 37.59 0 28.44-24.89 47.24-49.27 66l-7.62 6.09Zm-429.7-16.25c0 11.17-4.57 20.82-12.7 27.43-7.62 6.1-17.27 9.14-27.94 9.14-20.82 0-37.59-12.7-42.66-32l17.79-7.11v.51c3.56 15.75 15.75 21.33 26.41 21.33s21.33-5.59 21.33-18.28c0-12.19-9.65-17.27-24.89-23.36l-2-.51c-14.73-5.59-33-13.21-33-37.08 0-24.38 18.79-35.55 36.57-35.55 13.71 0 30 7.11 36.06 22.35v.51l-15.75 6.1C266.17 562 256.52 558 248.9 558c-9.14 0-18.79 6.1-18.79 17.78 0 12.19 9.65 16.76 22.86 22.35l1.52.51c16.76 7.06 36.06 14.68 36.06 38.55ZM477 625c0 27.94-18.79 48.25-45.2 48.25s-45.2-20.32-45.2-48.25 19.3-48.25 45.2-48.25S477 597.06 477 625Zm-45.2-32c-16.76 0-29 13.21-29 32 0 21.33 14.73 32.51 29 32.51s28.44-11.17 28.44-32.51c-.05-18.79-12.24-32.51-28.49-32ZM546 631.6v-52.82h16.25v91.42h-13.17l-3-12.7c-5.59 9.14-15.75 14.73-27.43 14.73-14.73 0-31.49-9.14-31.49-35v-58.45h16.25v58.41c0 15.24 9.65 20.32 18.28 20.32 11.68 0 23.87-9.14 23.87-25.9Zm58.41-78.73v26.41h19.3V594h-19.3v51.3c0 8.13 3.56 12.7 10.16 12.7a15.11 15.11 0 0 0 7.62-2.54l1-.51v15.75h-.51a34.14 34.14 0 0 1-12.19 2c-8.63 0-22.86-4.06-22.86-29v-50.19h-15.19v-14.73h15.24V559l16.25-6.1Zm212.31 70.6v16.76h-21.3v30.48h-16.76v-30.47h-57.9v-12.7l47.74-81.27h18.28l-45.2 77.2h37.08v-31l16.76-6.6v37.59Zm-434.24 24.38-.51.51c-8.13 15.24-22.35 23.87-38.6 23.87-21.37 0-43.68-15.23-43.68-48.23 0-14.73 4.57-27.43 13.21-36.06a41.46 41.46 0 0 1 29.46-11.68c16.25 0 30 8.63 36.57 22.35l.51.51-15.24 6.1a24.18 24.18 0 0 0-21.33-12.7c-18.29 0-26.41 16.76-26.41 32 0 22.35 13.71 32.51 27.43 32.51a26.77 26.77 0 0 0 23.36-14.22Z"/>
</svg>
